X: 4366
T: RATAPLAN FROM "LA FIGLIA."
N: Rataplan describes a rythmic beating sound: drums, horse hooves, etc.
%R: march, reel
B: James Kerr "Merry Melodies" v.4 p.39 #366
Z: 2016 John Chambers <jc:trillian.mit.edu>
N: The 2nd strain has only 7 bars.
M: 2/4
L: 1/16
K: D
DF |\
A2DF A2DF | A6 DF | A2DF A2d2 | f6 (ed) |\
(c2de) (B2cd) | (A2Bc) (G2AB) | (F2GA) (E2FE) | D6 H:|
d/c/ |\
B2^A2B2 cB | A2^G2A2 dc | B2^A2B2 cB | A2EF =G2EF |\
G2EF G2EF | G2A,B, =C2A,B, | =C2A,B, "_D.C."^C2 |]

%%sep 1 1 500
%%sep 1 1 500

